!!!!SEGMENT: pl-sa--290-a-vii-50--004_lechleitner-ferdinand-simon--missa-s-luciae-sanctus.krn
!!!cenid: 17xx:433
!!!COM: Lechleitner, Ferdinand Simon
!!!COM-rismID:
!!!CDT: ~1700-~1800
!!!CNT:
!!!OPR: Missa S. Luciae
!!!OTL: Sanctus
!!!OMV: 004
!!!PDT: 1738
!!!AGN: Sacred; Mass
!!!SMS-siglum: PL-SA
!!!SMS-shelfmark: 290/A VII 50
!!!SMS-shelfwork: 001-004 M
!!!NIFC-rismSourceID: 1001070169
!!!NIFC-islandoraID:
!!!URL-pdf-islandora:
!!!URL-scan: https://bc.bdsandomierz.pl/dlibra/publication/1785/edition/1753/content @EN{Scan on Cyfrowa Biblioteka Diecezjalna w Sandomierzu} @PL{Skany w portalu Cyfrowa Biblioteka Diecezjalna w Sandomierzu}
!!!ONB-nifc: UWAGA: części Mszy: Kyrie, Gloria, Patrem, Sanctus, Benedictus, Agnus Dei
!!!AIN: 1 alto 3 empty 1 organ 1 tenor 2 violn 1 vox
!!!key:
**kern	**fba	**kern	**kern	**kern	**text	**kern	**text	**kern	**text	**kern	**text	**kern	**kern
*part9	*	*part8	*part7	*part6	*part6	*part5	*part5	*part4	*part4	*part3	*part3	*part2	*part1
*staff9	*	*staff8	*staff7	*staff6	*staff6	*staff5	*staff5	*staff4	*staff4	*staff3	*staff3	*staff2	*staff1
*Iorgan	*	*Ivioln	*Ivioln	*Iempty	*	*Itenor	*	*Ialto	*	*Ivox	*	*Iempty	*Iempty
*I"[Baſso pro Organo]	*	*I"Violino Secundo	*I"Violino Primo	*I"Baſso	*	*I"Tenore	*	*I"Alto	*	*I"Canto	*	*I"Clarino 2do	*I"Clarino Primo ex C
*I'org	*	*I'vl II	*I'vl I	*I'B	*	*I'T	*	*I'A	*	*I'C	*	*I'clno II	*I'clno I
*clefF4	*	*clefG2	*clefG2	*clefF4	*	*clefC4	*	*clefC3	*	*clefC1	*	*clefG2	*clefG2
*k[]	*	*k[]	*k[]	*k[]	*	*k[]	*	*k[]	*	*k[]	*	*k[]	*k[]
*C:	*	*C:	*C:	*C:	*	*C:	*	*C:	*	*C:	*	*C:	*C:
*M3/2	*	*M3/2	*M3/2	*M3/2	*	*M3/2	*	*M3/2	*	*M3/2	*	*M3/2	*M3/2
=1	=1	=1	=1	=1	=1	=1	=1	=1	=1	=1	=1	=1	=1
!LO:TX:b:t=Sanctus D(omi)nus	!	!LO:TX:b:t=Sanctus D(omi)nus Deus	!LO:TX:b:t=Sanct(us) D(omi)nus Deus	!	!	!	!	!	!	!	!	!LO:TX:b:t=Sanct(us) D(omi)nus Deus	!LO:TX:b:t=Sanctus D(omi)nus
!LO:TX:a:t=Tutti	!	!	!	!	!	!	!	!	!	!	!	!	!
1C	.	1cc	1gg	1C	San-	1c	San-	1g	ſan-	1ee	San-	1g	1cc
*2\right	*	*2\right	*2\right	*2\right	*	*2\right	*	*2\right	*	*2\right	*	*	*2\right
2G\	.	2dd\	2gg\	2G\	-ct(us)	2B\	-ctus	2b\	-ctus	2dd\	-ctus	2g/	2dd\
=2	=2	=2	=2	=2	=2	=2	=2	=2	=2	=2	=2	=2	=2
2.E/	6	2.cc\	2.ee\	2.E\	Do-	2.c\	Do-	2.g\	Do-	2.ee\	Do-	2.g/	2.ee\
4D/	6	4dd\	4ff\	4D/	-mi-	4d\	-mi-	4f\	-mi-	4ff\	-mi-	4dd\	4ff\
*	*	*	*	*	*	*	*	*	*	*	*	*2\right	*
2C/	.	2ee\	2gg\	2C/	-nus	2e\	-nus	2e\	-nus	2gg\	-nus	2ee\	2gg\
=3	=3	=3	=3	=3	=3	=3	=3	=3	=3	=3	=3	=3	=3
1D	7	1dd	1ff	1D	De-	(1c	De-	1f	De-	1.ff	De-	1dd	1ff
2GG/	7	2dd\	2ff\	2GG/	-us	2B\)	.	2f\	-us	.	.	2dd\	2ff\
=4	=4	=4	=4	=4	=4	=4	=4	=4	=4	=4	=4	=4	=4
1C	.	2cc\	2ee\	2C,</	ſ(an)-	2c\	-us	2g\	ſan-	2ee,<\	-us	2cc\	2ee\
.	.	2ee\	2gg\	2C/	.	2e\	ſan-	2e\	.	2gg\	ſan-	2ee\	2gg\
2D/	6	2dd\	2ff\	2D/	-ct(us)	2d\	-ct(us)	2f\	-ctus	2ff\	-ct(us)	2dd\	2ff\
=5	=5	=5	=5	=5	=5	=5	=5	=5	=5	=5	=5	=5	=5
*	*	*	*	*	*	*	*	*	*ij	*	*	*	*
2E\	6	2cc\	2ee\	(2E/	ſan-	2c\	ſan-	2g\	ſan-	2ee\	ſan-	2cc\	2ee\
2D/	6	2dd\	2ff\	2D/)	.	2d\	.	2f\	.	2ff\	.	2dd\	2ff\
2C/	.	2ee\	2gg\	2C/	-ct(us)	(4e\	-ctus	2e\	-ctus	4gg\	-ctus	4ee\	4gg\
*	*	*	*	*	*	*	*	*	*Xij	*	*	*	*
.	.	.	.	.	.	4c\)	.	.	.	4ee\	.	4cc\	4ee\
=6	=6	=6	=6	=6	=6	=6	=6	=6	=6	=6	=6	=6	=6
!	!	!	!LO:TX:a:t=P:problem=brak t. 6	!	!	!	!	!	!	!	!	!	!
1BB	6	1dd	1.ryy	2.BB/	Do-	2.d\	Do-	2.g\	Do-	2.dd\	Do-	1g	1dd
.	.	.	.	4BB/	-mi-	4c\	-mi-	4g\	-mi-	4dd\	-mi-	.	.
2GG/	.	2dd\	.	2GG/	-n(us)	2B\	-nus	2g\	-nus	2dd\	-nus	2g/	2dd\
=7	=7	=7	=7	=7	=7	=7	=7	=7	=7	=7	=7	=7	=7
1C	.	1ee	1gg	1C	De-	1c	De-	1g	De-	1ee	De-	2e/	2cc\
.	.	.	.	.	.	.	.	.	.	.	.	2cc\	2ee\
2E\	6	2cc\	2ee\	2E\	-us	2c\	-(us)	2g\	-us	2ee\	-us	2cc\	2ee\
=8	=8	=8	=8	=8	=8	=8	=8	=8	=8	=8	=8	=8	=8
!	!	!	!	!LO:SIC:s=2F\:v	!	!	!	!	!	!	!	!	!
2F\	6 5	[2cc\	2dd\	2F#X\	ſa-	1c	ſa-	2a\	ſa-	1dd	ſa-	2cc\	2dd\
2G\	.	2cc\]	2.dd\	2.G\	-ba-	.	.	2.g\	-ba-	.	.	2.g/	2.dd\
2GG/	4:3	2b/	.	.	.	2B\	-ba-	.	.	2dd\	-ba-	.	.
.	.	.	8cc\L	4GG/	.	.	.	4g\	.	.	.	4g/	4dd\
.	.	.	8dd\J	.	.	.	.	.	.	.	.	.	.
!	!	!	!	!	!	!	!	!LO:LB:g=original	!	!	!	!	!
=9	=9	=9	=9	=9	=9	=9	=9	=9	=9	=9	=9	=9	=9
2C/	.	2cc\	2ee\	2C,</	-oth	2c\	-oth	2g,<\	-oth	2ee\	-oth	2e/	2cc\
!	!	!	!	!	!	!LO:LB:g=original	!	!	!	!LO:LB:g=original	!	!	!
2c\	.	2r	2r	2c\	Ple-	2e\	Ple-	2e\	Ple-	2cc\	Ple-	2r	2r
2B\	.	2r	2r	2B\	-ni	2d\	-ni	2g\	-ni	2dd\	-ni	2r	2r
!	!	!	!	!LO:LB:g=original	!	!	!	!	!	!	!	!	!LO:LB:g=original
=10	=10	=10	=10	=10	=10	=10	=10	=10	=10	=10	=10	=10	=10
*	*	*	*	*	*	*	*ij	*	*	*	*ij	*	*
2c\	.	8ree	8r	2c\	Ple-	2c\	Ple-	2g\	ple-	2ee\	Ple-	4c/	4e/
.	.	8ccc\L	8ccc\L	.	.	.	.	.	.	.	.	.	.
.	.	8bb\	8bb\	.	.	.	.	.	.	.	.	8c/L	8e/L
.	.	8aa\J	8aa\J	.	.	.	.	.	.	.	.	8c/J	8e/J
2C/	.	8gg\L	8gg\L	2C/	-ni	2c\	-ni	2g\	-ni	2ee\	-ni	4c/	4e/
*	*	*	*	*	*	*	*	*	*	*	*Xij	*	*
.	.	8aa\	8aa\	.	.	.	.	.	.	.	.	.	.
.	.	8gg\	8gg\	.	.	.	.	.	.	.	.	4c/	4e/
.	.	8ff\J	8ff\J	.	.	.	.	.	.	.	.	.	.
!	!	!LO:LB:g=original	!LO:LB:g=original	!	!	!	!	!	!	!	!	!LO:LB:g=original	!
2r	.	8ee\L	8ee\L	2r	.	2r	.	2re	.	2rb	.	4c/	4e/
.	.	8ff\	8ff\	.	.	.	.	.	.	.	.	.	.
.	.	8ee\	8ee\	.	.	.	.	.	.	.	.	4c/	4e/
.	.	8dd\J	8dd\J	.	.	.	.	.	.	.	.	.	.
=11	=11	=11	=11	=11	=11	=11	=11	=11	=11	=11	=11	=11	=11
2r	.	2cc\	2cc\	2r	.	2r	.	2r	.	2r	.	2c/	2e/
*	*	*	*	*	*ij	*	*	*	*ij	*	*	*	*
2c\	.	2r	2c/	2c\	Ple-	2G/	Ple-	2e\	Ple-	2cc\	Ple-	2c/	2e/
2B\	6	2r	2r	2B\	-ni	2G/	-ni	2g\	-ni	2dd\	-ni	2r	2rg
!	!LO:LB:g=original	!	!	!	!	!	!	!	!	!	!	!	!
=12	=12	=12	=12	=12	=12	=12	=12	=12	=12	=12	=12	=12	=12
*	*	*	*	*	*	*	*	*	*	*	*ij	*	*
2c\	.	8ree	8ree	2c\	Ple-	2c\	Ple-	2g\	ple-	2ee\	Ple-	4e/	4g/
.	.	8ccc\L	8ccc\L	.	.	.	.	.	.	.	.	.	.
.	.	8bb\	8bb\	.	.	.	.	.	.	.	.	8e/L	8g/L
.	.	8aa\J	8aa\J	.	.	.	.	.	.	.	.	8e/J	8g/J
2C/	.	8gg\L	8gg\L	2C/	-ni	2c\	-ni	2c/	-ni	2ee\	-ni	4e/	4g/
*	*	*	*	*	*Xij	*	*Xij	*	*Xij	*	*Xij	*	*
.	.	8aa\	8aa\	.	.	.	.	.	.	.	.	.	.
.	.	8gg\	8gg\	.	.	.	.	.	.	.	.	4e/	4g/
.	.	8ff\J	8ff\J	.	.	.	.	.	.	.	.	.	.
2r	.	8ee\L	8ee\L	2r	.	2r	.	2r	.	2rb	.	4e/	4g/
.	.	8ff\	8ff\	.	.	.	.	.	.	.	.	.	.
.	.	8ee\	8ee\	.	.	.	.	.	.	.	.	4e/	4g/
.	.	8dd\J	8dd\J	.	.	.	.	.	.	.	.	.	.
=13	=13	=13	=13	=13	=13	=13	=13	=13	=13	=13	=13	=13	=13
2r	.	2cc\	2cc\	2r	.	2r	.	2r	.	2rb	.	2e/	2g/
2C/	.	2c/	2c/	2C/	Ple-	2c\	ple-	2g\	ple-	2ee\	ple-	2e/	2g/
2C/	.	2ee\	2gg\	2C/	-ni	2c\	-ni	2e\	-ni	2cc\	-ni	2r	2r
=14	=14	=14	=14	=14	=14	=14	=14	=14	=14	=14	=14	=14	=14
*	*	*	*	*	*	*	*ij	*	*ij	*	*ij	*	*
!	!	!	!	!	!	!	!	!	!	!	!	!LO:N:vis=00	!LO:N:vis=00
2BB/	6	2dd\	2gg\	2BB/	ple-	2G/	ple-	2g\	ple-	2dd\	ple-	00.r	00.r
2GG/	.	2b\	2dd\	2GG/	-ni	2B,<\	-ni	2g\	-ni	2dd\	-ni	.	.
*	*	*	*	*	*	*	*Xij	*	*Xij	*	*Xij	*	*
2BB/	.	2dd\	2gg\	2BB/	ſunt	2d\	ſunt	2g\	ſunt	2dd\	ſunt	.	.
=15	=15	=15	=15	=15	=15	=15	=15	=15	=15	=15	=15	=15	=15
2C/	.	2ee\	2gg\	2C/	Cae-	2.c\	Cae-	2e\	Cae-	2ee\	Cae-	.	.
2E\	6	2ee\	2gg\	2E\	-li	.	.	2g\	-li	4gg\	-li	.	.
.	.	.	.	.	.	4c\	-li	.	.	4ff\	.	.	.
2F\	6 5	4dd\	4ff\	2F\	et	(4d\	et	2a\	et	2ee\	et	.	.
.	.	4cc\	4ee\	.	.	4c\)	.	.	.	.	.	.	.
=16	=16	=16	=16	=16	=16	=16	=16	=16	=16	=16	=16	=16	=16
1G	.	4b\	4dd\	1G	ter-	1B	ter-	1b	ter-	1dd	ter-	.	.
.	.	4dd\	4b\	.	.	.	.	.	.	.	.	.	.
.	.	4dd\	4b\	.	.	.	.	.	.	.	.	.	.
.	.	4b\	4dd\	.	.	.	.	.	.	.	.	.	.
2G\	.	4b\	4g/	2G\	-ra	2B\	-ra	2g\	-ra	2dd\	-ra	.	.
.	.	4b\	4dd\	.	.	.	.	.	.	.	.	.	.
=17	=17	=17	=17	=17	=17	=17	=17	=17	=17	=17	=17	=17	=17
2.E\	.	2.g/	2.ee\	2.E\	glo-	2.c\	glo-	2.g\	glo-	2.ee\	glo-	.	.
4D/	.	4dd\	4ff\	4D\	-ri-	4d\	-ri-	4f\	-ri-	4ff\	-ri-	.	.
!	!	!	!	!	!	!	!	!	!	!LO:LB:g=original	!	!	!
2C/	.	2ee\	2gg\	2C/	-a	2e\	-a	2e\	-a	2gg\	-a	.	.
!	!	!	!LO:LB:g=original	!	!	!	!	!LO:LB:g=original	!	!	!	!	!
=18	=18	=18	=18	=18	=18	=18	=18	=18	=18	=18	=18	=18	=18
*	*	*	*	*	*ij	*	*ij	*	*	*	*ij	*	*
2.BB/	6	2.dd\	2.gg\	2.BB/	glo-	2.d\	glo-	2.d\	glo-	2.dd\	glo-	2r	4r
.	.	.	.	.	.	.	.	.	.	.	.	.	4rdd
.	.	.	.	.	.	.	.	.	.	.	.	2g/	2dd\
4GG/	.	4dd\	4gg\	4GG/	-ri-	4B\	-ri-	4g\	-ri-	4dd\	-ri-	.	.
!	!	!	!	!LO:LB:g=original	!	!LO:LB:g=original	!	!	!	!	!	!	!
2BB/	.	2dd\	2gg\	2BB/	-a	2d\	-a	2g\	-a	2dd\	-a	2g/	2dd\
*	*	*	*	*	*	*	*Xij	*	*	*	*	*	*
!	!	!LO:LB:g=original	!	!	!	!	!	!	!	!	!	!	!
=19	=19	=19	=19	=19	=19	=19	=19	=19	=19	=19	=19	=19	=19
*	*	*	*	*	*	*	*	*	*ij	*	*	*	*
2.C/	.	2.cc\	2.ee\	2.C/	glo-	2.c\	glo-	2.g\	glo-	2.ee\	glo-	2.cc\	2.ee\
4C/	.	4ee\	4gg\	4C/	-ri-	4G/	-ri-	4g\	-ri-	4ee\	-ri-	4cc\	4ee\
2C/	.	4ee\	4gg\	2C/	-a	2c\	-a	2e\	-a	2ee\	-a	2cc\	2ee\
*	*	*	*	*	*Xij	*	*	*	*Xij	*	*Xij	*	*
.	.	4cc\	4ff\	.	.	.	.	.	.	.	.	.	.
=20	=20	=20	=20	=20	=20	=20	=20	=20	=20	=20	=20	=20	=20
*	*	*	*	*	*	*	*ij	*	*	*	*	*	*
2.C/	.	2.cc\	2.ee\	2.C/	glo-	2.e\	glo-	2.e\	glo-	2.gg\	glo-	2.ee\	2.gg\
4D/	6	4dd\	4ff\	4D/	-ri-	4d\	-ri-	4f\	-ri-	4ff\	-ri-	4dd\	4ff\
2E/	6	2ee\	2gg\	2E\	-a	2c\	-a	2g\	-a	2ee\	-a	2cc\	2ee\
*	*	*	*	*	*	*	*Xij	*	*	*	*	*	*
=21	=21	=21	=21	=21	=21	=21	=21	=21	=21	=21	=21	=21	=21
2F\	6 5	4dd\	4ff\	2F\	tu-	1c	tu-	2a\	tu-	2dd\	tu-	2cc\	2dd\
.	.	4cc\	4ee\	.	.	.	.	.	.	.	.	.	.
2G\	.	2dd\	2dd\	2G\	.	.	.	1g	.	2.dd\	.	2.g/	2.dd\
2GG/	7 4:3	2dd\	2bb\	2GG/	.	2B\	.	.	.	.	.	.	.
.	.	.	.	.	.	.	.	.	.	8cc\L	.	4g/	4dd\
.	.	.	.	.	.	.	.	.	.	8dd\J	.	.	.
=22	=22	=22	=22	=22	=22	=22	=22	=22	=22	=22	=22	=22	=22
!LO:N:vis=1	!	!	!	!	!	!	!	!	!	!	!	!LO:TX:a:t=P:problem=kreska taktowa koniec/początek repetycji	!
1.C	.	1.ee	1.ccc	1.C	-a	1.c	-a	1.g	-a	1.ee	-a	1.e	1.cc
=23	=23	=23	=23	=23	=23	=23	=23	=23	=23	=23	=23	=23	=23
!LO:TX:a:t=P:problem=nadmiarowy takt w vn I	!	!LO:TX:a:t=P:problem=nadmiarowy takt w vn I	!LO:TX:a:t=P:problem=zbędnie powtórzony t. 22	!LO:TX:a:t=P:problem=nadmiarowy takt w vn I	!	!LO:TX:a:t=P:problem=nadmiarowy takt w vn I	!	!LO:TX:a:t=P:problem=nadmiarowy takt w vn I	!	!LO:TX:a:t=P:problem=nadmiarowy takt w vl I	!	!LO:TX:a:t=P:problem=nadmiarowy takt w vn I	!LO:TX:a:t=P:problem=nadmiarowy takt w vn I
1.ryy	.	1.ryy	1.ccc	1.ryy	.	1.ryy	.	1.ryy	.	1.ryy	.	1.ryy	1.ryy
!	!	!	!	!	!	!	!	!	!	!	!	!LO:LB:g=original	!LO:LB:g=original
!LO:PB:g=original	!	!	!	!	!	!	!	!	!	!	!	!	!
=24||	=24||	=24||	=24||	=24||	=24||	=24||	=24||	=24||	=24||	=24||	=24||	=24||	=24||
*M4/4	*	*M4/4	*M4/4	*M4/4	*	*M4/4	*	*M4/4	*	*M4/4	*	*M4/4	*M4/4
*met(c)	*	*met(c)	*met(c)	*met(c)	*	*met(c)	*	*met(c)	*	*met(c)	*	*met(c)	*met(c)
!LO:TX:b:t=Oſanna. Tut	!	!LO:TX:b:t=Oſanna in excelſis	!LO:TX:b:t=Oſanna	!	!	!	!	!	!	!	!	!LO:TX:b:t=Oſanna in	!LO:TX:b:t=Oſanna
8AA/	.	16cc\LL	16ee\LL	8AA/	O-	16c\LL	O-	8e\	O-	16ee\LL	O-	8e/	8e/
.	.	16b\JJ	16dd\JJ	.	.	16B\JJ	.	.	.	16dd\JJ	.	.	.
=25	=25	=25	=25	=25	=25	=25	=25	=25	=25	=25	=25	=25	=25
8C/L	6	8a/L	8cc\L	8C/	-ſan-	8A\	-ſan-	8a\	-ſan-	8cc\	-ſan-	4e/	8e/L
8AA/	.	8a/	8cc\	8AA/	-na	8c\	-na	8a,<\	-na	8cc,<\	-na	.	16e/L
.	.	.	.	.	.	.	.	.	.	.	.	.	16e/JJ
8C/	.	8a/	8cc\	8C/	in	8A/	In	8a\	in	8cc\	in	8re	16e/LL
.	.	.	.	.	.	.	.	.	.	.	.	.	16e/
8E/J	#	8g#X/J	8b\J	8E\	ex-	8B\	ex-	8g#X\	ex-	8b\	ex-	8e/	16e/
.	.	.	.	.	.	.	.	.	.	.	.	.	16e/JJ
4A\	.	16a/LL	16cc\LL	4A\	-cel-	16A\LL	-cel-	4a\	-cel-	16cc\LL	-cel-	8e/L	4e/
.	.	16b/	16dd\	.	.	16B\	.	.	.	16dd\	.	.	.
.	.	16a/	16cc\	.	.	16A\	.	.	.	16cc\	.	16e/L	.
.	.	16b/JJ	16dd\JJ	.	.	16B\JJ	.	.	.	16dd\JJ	.	16e/JJ	.
!	!	!	!	!	!	!	!	!	!	!LO:LB:g=original	!	!	!
!LO:TX:a:t=P:problem=mixed beam	!	!	!	!	!	!LO:TX:a:t=problem&colon;znak oddechu na 1 linii	!	!	!	!	!	!	!
8A\L	.	8cc/L	8ee\L	8A,<\	-ſis	8c,<\	-ſis	8e\	-ſis	8ee,<\	-sis	16e/LL	8re
.	.	.	.	.	.	.	.	.	.	.	.	16e/	.
8AA/J	.	16cc/L	16ee\L	8AA/	O-	16c\LL	O-	8a\	O-	16ee\LL	O-	16e/	8e/
.	.	16b/JJ	16dd\JJ	.	.	16B\JJ	.	.	.	16dd\JJ	.	16e/JJ	.
!	!	!	!	!	!	!	!	!LO:LB:g=original	!	!	!	!	!
=26	=26	=26	=26	=26	=26	=26	=26	=26	=26	=26	=26	=26	=26
*	*	*	*	*	*	*	*^	*	*	*	*	*	*
8C/L	.	8a/L	8cc\L	8C/	-ſan-	8A/	-ſan-	.	8a\	-ſan-	8cc\	-ſan-	8e/L	8e/L
8AA/	.	8a/	8cc\	8AA/	-na	8c\	-na	.	8a\	-na	8cc\	-na	8e/	16e/L
.	.	.	.	.	.	.	.	.	.	.	.	.	.	16e/JJ
8C/	.	8a/	8cc\	8C/	in	8A/	in	.	8a\	in	8cc\	in	8e/	16e/LL
.	.	.	.	.	.	.	.	.	.	.	.	.	.	16e/
8E/J	#	8g#X/J	8b\J	8E\	ex-	8B/	ex-	.	8g#X\	ex-	8b\	ex-	8e/J	16e/
.	.	.	.	.	.	.	.	.	.	.	.	.	.	16e/JJ
!	!	!	!LO:LB:g=original	!LO:LB:g=original	!	!LO:LB:g=original	!	!	!	!	!	!	!	!
!	!	!	!	!	!	!LO:TX:a:t=P:problem=na oznaczeniach repetycji tekstu słowa zapisane inną ręką	!	!	!	!	!	!	!	!
*	*	*	*	*	*	*	*ij	*	*	*	*	*	*	*
4A\	.	16a/LL	16cc\LL	4A\	-cel-	16A\LL	-cel-	cel-	4a\	-cel-	16cc\LL	-cel-	4e/	4e/
.	.	16b/	16dd\	.	.	16B\	.	.	.	.	16dd\	.	.	.
.	.	16a/	16cc\	.	.	16A\	.	.	.	.	16cc\	.	.	.
.	.	16b/JJ	16dd\JJ	.	.	16B\JJ	.	.	.	.	16dd\JJ	.	.	.
8A\L	.	8cc/L	8ee\L	8A\	-ſis	8c,<\	-ſis	-ſis	8a,<\	-ſis	8ee,<\	-ſis	4rg	4r
!	!	!	!	!	!	!	!	!	!LO:TX:a:t=P:problem=powtórzenie tekstu zgodnie z C	!	!	!	!	!
*	*	*	*	*	*	*	*	*	*	*ij	*	*	*	*
8E\J	#	8g#X/J	8b\J	8E\	O-	8B\	o-	o-	8g#X\	O-	8ee\	O-	.	.
=27	=27	=27	=27	=27	=27	=27	=27	=27	=27	=27	=27	=27	=27	=27
8C/L	6	16a/LL	8cc\L	8C/L	-ſan-	8A\L	-ſan-	-ſan-	8a\L	-ſan-	(8ee\L	-ſan-	1r	1r
.	.	16b/	.	.	.	.	.	.	.	.	.	.	.	.
8BB/	#6\	16cc/	8dd\	8BB/J	.	8B\J	.	.	8g#X\J	.	8dd\J)	.	.	.
.	.	16b/JJ	.	.	.	.	.	.	.	.	.	.	.	.
!	!	!LO:LB:g=original	!	!	!	!	!	!	!	!	!	!	!	!
8AA/	.	8a/L	8ee\	8AA,</	-na	8c\	-na	-na	8a\	-na	8cc,<\	-na	.	.
8E/J	#	8b/J	8ee\J	8E\	in	8e\	o-	o-	8g#X\	O-	8b\	O-	.	.
8C/L	6	8cc\L	8ee\L	8C/L	ex-	8e\L	-ſan-	-ſan-	8a\L	-ſan-	8cc\L	-ſan-	.	.
8BB/J	#6\	8b\	8dd\J	8BB/J	.	8d\J	.	.	8g#X\J	.	8dd\J	.	.	.
4AA/	.	8cc\	16cc\LL	4AA/	-cel-	16c\LL	-na	-na	4a\	-na	16ee\LL	.	.	.
.	.	.	16dd\	.	.	16B\JJ	.	.	.	.	16dd\JJ	.	.	.
.	.	8ee\J	16ee\	.	.	16A\LL	.	.	.	.	16cc\LL	-na	.	.
.	.	.	16cc\JJ	.	.	16c\JJ	.	.	.	.	16dd\JJ	.	.	.
=28	=28	=28	=28	=28	=28	=28	=28	=28	=28	=28	=28	=28	=28	=28
!LO:TX:a:t=P:problem=mixed beam	!	!	!	!	!	!	!	!	!	!	!	!	!	!
8C\L	6	16cc\LL	16ee\LL	8C,</	-ſis	16A\LL	in	In	8e\	in	16cc\LL	in	8re	8re
.	.	16cc\	16ee\	.	.	16c\JJ	.	.	.	.	16ee\JJ	.	.	.
8D\	6 5	16b\	16dd\	8D/	ex-	16B\LL	ex-	ex-	8f\	ex-	16dd\LL	ex-	8e/L	8e/L
.	.	16a\JJ	16cc\JJ	.	.	16A\JJ	.	.	.	.	16cc\JJ	.	.	.
!	!	!	!	!LO:TX:a:t=P:problem=mixed beam	!	!	!	!	!	!	!	!	!	!
8E\	.	8.b\L	16b\LL	8E\L	-cel-	8.A/L	-cel-	-cel-	4e\	-cel-	4b\	-cel-	8e/	8e/
.	.	.	16gg#X\	.	.	.	.	.	.	.	.	.	.	.
8EE/J	# 4:3	.	16ff#X\	8EE/J	.	.	.	.	.	.	.	.	8e/J	8e/J
.	.	16b\Jk	16gg#\JJ	.	.	16G#X/Jk	.	.	.	.	.	.	.	.
!	!	!	!LO:TX:a:t=P:problem=mixed beam	!	!	!	!	!	!	!	!	!	!	!
4AA/	.	4cc\	8aa\L	4AA/	-ſis	4A/	-ſis	-ſis	4e\	-ſis	4cc\	-ſis	4e/	4e/
*	*	*	*	*	*	*	*Xij	*	*	*	*	*	*	*
.	.	.	8a/J	.	.	.	.	.	.	.	.	.	.	.
8rBB	.	8r	8ree	8rBB	.	8rc	.	.	8r	.	8rcc	.	8re	8re
!	!	!	!LO:TX:a:t=P:problem=kasownik nad nutą	!	!	!	!	!	!	!	!	!	!	!
8C/	.	16ee\LL	16ggn\LL	8C/	O-	16e\LL	O-	.	8g\	O-	16gg\LL	O-	8c/	8c/
!	!	!	!LO:SIC:s=16ffn\JJ:v	!	!	!	!	!	!	!	!	!	!	!
.	.	16dd\JJ	16ff#\JJ	.	.	16d\JJ	.	.	.	.	16ff\JJ	.	.	.
!	!	!	!	!	!	!	!	!	!	!	!LO:LB:g=original	!	!	!
*	*	*	*	*	*	*	*v	*v	*	*	*	*	*	*
=29	=29	=29	=29	=29	=29	=29	=29	=29	=29	=29	=29	=29	=29
8E\L	6	8cc\L	8ee\L	8E\	-ſan-	8c\	-ſan-	8g\	-ſan-	8ee\	-ſan-	8e/L	8e/L
8C\	.	8cc\	8ee\	8C/	-na	8c\	-na	8e\	-na	8ee,<\	-na	8c/	8c/
8E\	.	8cc\	8ee\	8E\	in	8c\	in	8g\	in	8ee\	in	8e/	8e/
8G\J	.	8b\J	8dd\J	8G\	ex-	8B\	ex-	8b\	ex-	8dd\	ex-	8g/J	8g/J
!	!	!	!	!	!	!	!	!	!	!	!	!	!LO:TX:a:t=P:problem=mixed beam
4c\	.	16cc\LL	16ee\LL	4c\	-cel-	16c\LL	-cel-	4g\	-cel-	16ee\LL	-cel-	8e/L	8cc\L
.	.	16dd\	16ff\	.	.	16d\	.	.	.	16ff\	.	.	.
.	.	16cc\	16ee\	.	.	16c\	.	.	.	16ee\	.	16e/L	16g/L
.	.	16dd\JJ	16ff\JJ	.	.	16d\JJ	.	.	.	16ff\JJ	.	16e/JJ	16g/JJ
!	!	!	!	!	!	!	!	!LO:LB:g=original	!	!	!	!	!
8C/L	.	8ee\L	8gg\L	8C,</	-ſis	8e,<\	-ſis	8c,</	-ſis	8gg,<\	[ſis]	8e/L	8e/L
*	*	*	*	*	*	*	*	*	*Xij	*	*	*	*
8C/J	.	16ee\L	16gg\L	8C/	O-	16e\LL	O-	8g\	O-	16gg\LL	O-	8c/J	8c/J
.	.	16dd\JJ	16ff\JJ	.	.	16d\JJ	.	.	.	16ff\JJ	.	.	.
!	!	!	!	!	!	!LO:LB:g=original	!	!	!	!	!	!LO:LB:g=original	!
=30	=30	=30	=30	=30	=30	=30	=30	=30	=30	=30	=30	=30	=30
!	!	!	!	!	!	!	!	!	!	!	!	!LO:TX:a:t=P:problem=przed tym taktem skreślony takt	!
8E\L	.	8cc\L	8ee\L	8E\	-ſan-	8c\	-ſan-	8g\	-ſan-	8ee\	-ſan-	8e/L	8e/L
8C\	.	8cc\	8ee\	8C/	-na	8c\	-na	8e\	-na	8ee,<\	-na	8c/J	8c/
*	*	*	*	*	*	*	*	*	*ij	*	*	*	*
8E\	.	8cc\	8ee\	8E\	in	8c\	in	8g\	in	8ee\	in	8e/L	8e/
!	!	!	!	!LO:LB:g=original	!	!	!	!	!	!	!	!	!
8G\J	.	8b\J	8dd\J	8G\	ex-	8B\	ex-	8g\	ex-	8dd\	ex-	8c/	8g/J
!	!	!	!	!	!	!	!	!	!	!	!	!	!LO:LB:g=original
!	!	!	!	!	!	!	!	!	!	!LO:TX:a:t=P:problem=niejednoznaczny podział powtórzeń tekstu w tt. 30-32	!	!	!LO:TX:a:t=P:problem=mixed beam
*	*	*	*	*	*	*	*	*	*	*	*ij	*	*
4c\	.	16cc\LL	16ee\LL	8c\	-cel-	16c\LL	-cel-	4g\	-cel-	16ee\LL	-cel-	8e/	8cc\L
.	.	16dd\	16ff\	.	.	16d\	.	.	.	16ff\	.	.	.
.	.	16cc\	16ee\	4C/	-ſis	16c\	.	.	.	16ee\	.	8g/J	16g/L
.	.	16dd\JJ	16ff\JJ	.	.	16d\JJ	.	.	.	16ff\JJ	.	.	16g/JJ
!LO:TX:a:t=P:problem=mixed beam	!	!	!	!	!	!	!	!	!	!	!	!	!
8C/L	.	8ee\L	8gg\L	.	.	8e\	-ſis	8c,</	-ſis	8ee\	-ſis	8e/L	8e/L
*	*	*	*	*	*	*	*	*	*Xij	*	*	*	*
8G\J	.	8dd\J	8gg\J	8G\	O-	8B\	O-	8g\	O-	8dd\	O-	16g/L	8g/J
.	.	.	.	.	.	.	.	.	.	.	.	16g/JJ	.
!LO:LB:g=original	!	!	!	!	!	!	!	!	!	!	!	!	!
=31	=31	=31	=31	=31	=31	=31	=31	=31	=31	=31	=31	=31	=31
*	*	*	*	*	*	*	*^	*	*	*	*	*	*
*	*	*	*	*	*	*	*ij	*	*	*	*	*	*	*
!	!	!	!	!	!	!LO:TX:a:t=P:problem=na oznaczeniach repetycji słowa zapisane inną ręką	!	!	!	!	!	!	!	!
8E\L	.	8cc\L	8ee\L	8E\L	-ſan-	8G/L	-ſan-	ſan-	8g\L	-ſan-	8ee\L	-ſan-	8g/L	8g/L
8D\	.	8dd\	8ff\J	8D\J	.	16c/L	.	.	8f\J	.	8ff\J	.	16g/L	16g/L
.	.	.	.	.	.	16d/JJ	.	.	.	.	.	.	16g/JJ	16g/JJ
8E\	.	8ee\	16gg\LL	8C,</	-na	8e\	-na	-na	8e\	-na	8gg\	-na	16g/LL	16g/LL
.	.	.	16ee\	.	.	.	.	.	.	.	.	.	16g/	16g/
!	!	!	!	!	!	!	!	!	!LO:TX:a:t=P:problem=niejednoznaczny podział powtórzeń tekstu w tt. 31-32	!	!	!	!	!
*	*	*	*	*	*ij	*	*	*	*	*ij	*	*	*	*
8G\J	.	8b\J	16dd\	8G\	O-	8B\	O-	o-	8g\	O-	8gg\	O-	16g/	16g/
.	.	.	16b\JJ	.	.	.	.	.	.	.	.	.	16g/JJ	16g/JJ
8E/L	.	8cc\L	8ee\L	8E\L	-ſan-	8c\L	-ſan-	-ſan-	8g\L	-ſan-	8cc\	-ſan-	4g/	4g/
8D/	.	8dd\	8ff\	8D\J	.	8B\J	-na	-na	8f\J	.	8dd\	-na	.	.
8C/	.	8ee\	8gg\	8C/	-na	8c\	in	In	8e\L	-na	8ee\	in	8rg	8r
8BB/J	.	8dd\J	8dd\J	8BB/	O-	8d\	ex-	ex-	8g\J	.	8dd\	ex-	8g/	8dd\
!	!	!	!	!	!	!	!	!	!	!	!LO:LB:g=original	!	!	!
!	!	!	!LO:PB:g=original	!	!	!	!	!	!	!	!	!	!	!
=32	=32	=32	=32	=32	=32	=32	=32	=32	=32	=32	=32	=32	=32	=32
4.C/	.	16cc\LL	16ee\LL	4.C/	-ſan-	16c\LL	-cel-	-cel-	4.e\	O-	16ee\LL	-cel-	16cc\LL	16ee\LL
.	.	16dd\	16ff\	.	.	16d\	.	.	.	.	16ff\	.	16g\	16dd\
.	.	16cc\	16ee\	.	.	16c\	.	.	.	.	16ee\	.	16cc\	16ee\
.	.	16dd\JJ	16ff\JJ	.	.	16d\JJ	.	.	.	.	16ff\JJ	.	16dd\JJ	16ff\JJ
.	.	8ee\L	8gg\L	.	.	8e\	-ſis	-ſis	.	.	8gg\	-ſis	8ee\L	8gg\L
8D/	6	8dd\J	8ff\J	8D/	-na	8d\	O-	o-	8f\	-ſan-	8ff\	O-	8cc\J	8ff\J
*	*	*	*	*	*Xij	*	*	*	*	*	*	*	*	*
!LO:TX:a:t=P:problem=mixed beam	!	!	!	!	!	!	!	!	!	!	!	!	!	!
8E\L	6	8cc\L	16ee\LL	8E\	in	16c\LL	-ſan-	-ſan-	8g\	-na	16ee\LL	-ſan-	16cc\LL	16ee\LL
.	.	.	16gg\	.	.	16e\	.	.	.	.	16gg\JJ	.	16ee\	16gg\
8F\	6 5	8dd\	16ff\	8F\	ex-	16d\	.	.	8a\	O-	16ff\LL	-na	16dd\	16ff\
.	.	.	16ee\JJ	.	.	16c\JJ	.	.	.	.	16ee\JJ	O-	16cc\JJ	16ee\JJ
!	!	!	!	!LO:TX:a:t=P:problem=mixed beam	!	!	!	!	!	!	!	!	!	!
8G\	.	8dd\	16dd\LL	8G\L	-cel-	8c\L	-na	-na	4g\	-ſan-	4dd\	-ſan-	8.g/L	8.dd\L
.	.	.	16bb\	.	.	.	.	.	.	.	.	.	.	.
8GG/J	4:3	8dd\J	16aa\	8GG/J	.	8B\J	O-	O-	.	.	.	.	.	.
.	.	.	16gg\JJ	.	.	.	.	.	.	.	.	.	16g/Jk	16dd\Jk
!	!	!LO:LB:g=original	!	!	!	!	!	!	!	!	!	!	!	!
=33	=33	=33	=33	=33	=33	=33	=33	=33	=33	=33	=33	=33	=33	=33
!LO:TX:a:t=P:problem=mixed beam	!	!	!	!	!	!	!	!	!	!	!	!	!	!
8C/L	.	16ee\LL	16gg\LL	8C,</	-ſis	16c\LL	-ſan-	-ſan-	8g,<\	-na	8ee,<\	-na	4e/	4cc\
*	*	*	*	*	*	*	*	*	*	*Xij	*	*Xij	*	*
.	.	16dd\	16ff\	.	.	16d\	.	.	.	.	.	.	.	.
8c\J	.	16cc\	16ee\	8c\	O-	16c\	.	.	8g\	O-	8ee\	O-	.	.
.	.	16b\JJ	16dd\JJ	.	.	16B\JJ	.	.	.	.	.	.	.	.
16c\LL	.	8cc\L	8ee\L	16c\LL	-ſan-	8c,<\	-na	na	4g\	-ſan-	16ee\LL	-ſan-	4rg	4r
*	*	*	*	*	*	*	*Xij	*	*	*	*	*	*	*
16B-X\	.	.	.	16B-X\	.	.	.	.	.	.	16dd\	.	.	.
!	!	!	!	!	!	!LO:LB:g=original	!	!	!	!	!	!	!	!
16A\	.	8cc\J	8ee\J	16A\	.	8c\	O-	.	.	.	16cc\	.	.	.
16G\JJ	.	.	.	16G\JJ	.	.	.	.	.	.	16b\JJ	.	.	.
!	!	!	!	!	!	!	!	!	!LO:LB:g=original	!	!	!	!	!
8F\L	.	16a/LL	16cc/LL	8F,<\	-na	4c\	-ſan-	.	8a\	-na	8a,<\	-na	2rg	2r
.	.	16g/	16b/	.	.	.	.	.	.	.	.	.	.	.
*	*	*	*	*	*ij	*	*	*	*	*ij	*	*	*	*
8F\J	.	16f/	16a/	8F\	O-	.	.	.	8a\	O-	8a\	O-	.	.
.	.	16e/JJ	16g/JJ	.	.	.	.	.	.	.	.	.	.	.
!	!	!LO:TX:a:t=P:problem=mixed beam	!LO:TX:a:t=P:problem=mixed beam	!	!	!	!	!	!	!	!	!	!	!
16F\LL	.	8f/L	8a/L	16F\LL	-ſan-	8A\	-na	.	16a\LL	-ſan-	4cc\	-ſan-	.	.
!LO:SIC:s=16E-\:v	!	!	!	!	!	!	!	!	!	!	!	!	!	!
16E\	.	.	.	16E-X\	.	.	.	.	16g\	.	.	.	.	.
16D\	.	8cc\J	8ff\J	16D\	.	8c\	O-	.	16f\	.	.	.	.	.
!	!	!	!	!	!	!	!	!	!LO:SIC:s=16e-\JJ:v	!	!	!	!	!
16C\JJ	.	.	.	16C\JJ	.	.	.	.	16e\JJ	.	.	.	.	.
!	!	!	!	!LO:LB:g=original	!	!	!	!	!	!	!	!	!	!
*	*	*	*	*	*	*	*v	*v	*	*	*	*	*	*
=34	=34	=34	=34	=34	=34	=34	=34	=34	=34	=34	=34	=34	=34
*	*	*	*	*	*	*	*^	*	*	*	*	*	*
!LO:TX:a:t=P:problem=mixed beam	!	!	!	!	!	!	!	!	!	!	!	!	!	!
8BB-X/L	.	16dd\LL	16ff\LL	8BB-X,</	-na	16d\LL	-ſan-	.	8d\	-na	8dd,<\	-na	0r	0r
.	.	16cc\	16ee\	.	.	16c\	.	.	.	.	.	.	.	.
*	*	*	*	*	*	*	*	*	*	*	*	*ij	*	*
!LO:SIC:s=8B-\J:v	!	!	!	!LO:SIC:s=8B-\:v	!	!LO:SIC:s=16B-\:v	!	!	!LO:TX:a:t=P:problem=niejednoznaczny podział powtórzeń tekstu w tt. 34-35	!	!LO:TX:a:t=P:problem=niejednoznaczny podział powtórzeń tekstu w tt. 34-36	!	!	!
8B\J	.	16b-X\	16dd\	8B\	O-	16B\	.	.	8f\	O-	8dd\	O-	.	.
.	.	16a\JJ	16cc\JJ	.	.	16A\JJ	.	.	.	.	.	.	.	.
!LO:SIC:s=16B-\LL:v	!	!	!	!LO:SIC:s=16B-\LL:v	!	!LO:SIC:s=8B-\:v	!	!	!	!	!	!	!	!
16B\LL	.	8b-X\L	8dd\L	16B\LL	-ſan-	8B\	-na	.	4f\	-ſan-	16dd\LL	-ſan-	.	.
16A\	.	.	.	16A\	.	.	.	.	.	.	16cc\	.	.	.
*	*	*	*	*	*	*	*ij	*	*	*	*	*	*	*
!	!	!	!LO:SIC:s=8bb-\J:v	!	!	!LO:TX:a:t=P:problem=na oznaczeniach repetycji tekstu słowa zapisane inną ręką	!	!	!	!	!LO:SIC:s=16b-\:v	!	!	!
16G\	.	8ff\J	8bb\J	16G\	.	8d\	O-	O-	.	.	16b\	.	.	.
16F\JJ	.	.	.	16F\JJ	.	.	.	.	.	.	16a\JJ	.	.	.
!	!	!	!LO:SIC:s=16bb-\LL:v	!	!	!LO:SIC:s=4B-\:v	!	!	!	!	!	!	!	!
8E\L	.	16gg\LL	16bb\LL	8E,<\	-na	4B\	-ſan-	-ſan-	8g\	-na	8g\	-na	.	.
.	.	16ff\	16aa\	.	.	.	.	.	.	.	.	.	.	.
!	!	!	!	!	!	!	!	!	!	!	!LO:SIC:s=8b-\:v	!	!	!
8E\J	.	16ee\	16gg\	8E\	O-	.	.	.	8g\	O-	8b\	O-	.	.
.	.	16dd\JJ	16ff\JJ	.	.	.	.	.	.	.	.	.	.	.
!	!	!	!	!	!	!LO:SIC:s=8B-\:v	!	!	!	!	!LO:SIC:s=4b-\:v	!	!	!
16E/LL	.	8ee\L	8gg\L	16E\LL	-ſan-	8B\	-na	-na	16g\LL	-ſan-	4b\	-ſan-	.	.
16D/	.	.	.	16D\	.	.	.	.	16f\	.	.	.	.	.
!	!	!	!	!	!	!LO:SIC:s=8B-\:v	!	!	!	!	!	!	!	!
16C/	.	8ee\J	8gg\J	16C\	.	8B\	O-	o-	16e\	.	.	.	.	.
16BB-/JJ	.	.	.	16BB-\JJ	.	.	.	.	16d\JJ	.	.	.	.	.
!	!	!	!	!	!	!	!	!	!	!	!LO:LB:g=original	!	!	!
=35	=35	=35	=35	=35	=35	=35	=35	=35	=35	=35	=35	=35	=35	=35
!LO:TX:a:t=P:problem=mixed beam	!	!	!	!	!	!	!	!	!	!	!	!	!	!
8AA/L	.	16cc/LL	16ee\LL	8AA,</	-na	4A/	-ſan-	-ſan-	8c/	-na	16cc\LL	-na	.	.
*	*	*	*	*	*Xij	*	*	*	*	*	*	*	*	*
!	!	!LO:SIC:s=16b-/:v	!	!	!	!	!	!	!	!	!LO:SIC:s=16b-\:v	!	!	!
.	.	16b/	16dd\	.	.	.	.	.	.	.	16b\	.	.	.
8A\J	.	16a/	16cc\	8A\	O-	.	.	.	8e\	O-	16a\	.	.	.
!	!	!	!LO:SIC:s=16b-\JJ:v	!	!	!	!	!	!	!	!	!	!	!
.	.	16g/JJ	16b\JJ	.	.	.	.	.	.	.	16g\JJ	.	.	.
!	!	!LO:TX:a:t=P:problem=mixed beam	!	!	!	!	!	!	!	!	!	!	!	!
16A\LL	.	8a/L	8cc\L	16A\LL	-ſan-	16c\LL	.	.	4e\	-ſan-	8a\	O-	.	.
!	!	!	!	!	!	!LO:SIC:s=16B-\:v	!	!	!	!	!	!	!	!
16G\	.	.	.	16G\	.	16B\	.	.	.	.	.	.	.	.
16F\	.	8ee\J	8aa\J	16F\	.	16A\	.	.	.	.	8ee\	-ſan-	.	.
16E\JJ	.	.	.	16E\JJ	.	16G\JJ	.	.	.	.	.	.	.	.
!	!	!LO:SIC:s=16ff\LL:v	!	!	!	!	!	!	!	!	!	!	!	!
8D\L	#	16ff#X\LL	16aa\LL	8D,</	-na	8A/	.	.	8d\	-na	4ff\	-na	.	.
.	.	16ee\	16gg\	.	.	.	.	.	.	.	.	.	.	.
!	!	!	!LO:SIC:s=16ff\:v	!	!	!	!	!	!	!	!	!	!	!
8D\J	.	16dd\	16ff#X\	8D/	O-	8F/	-na	-na	8a\	O-	.	.	.	.
.	.	16cc\JJ	16ee\JJ	.	.	.	.	.	.	.	.	.	.	.
!	!	!LO:TX:a:t=P:problem=mixed beam	!	!	!	!	!	!	!	!	!LO:SIC:s=16ff#\LL:v	!	!	!
16D/LL	.	8dd\L	8ff#X\L	16D/LL	-ſan-	(8A\L	O-	O-	4a\	-ſan-	16ff\LL	in	.	.
16C/	.	.	.	16C/	.	.	.	.	.	.	16ee\	.	.	.
16BB/	.	8a/J	8ff#\J	16BB/	.	8d\J)	.	.	.	.	16dd\	.	.	.
16AA/JJ	.	.	.	16AA/JJ	.	.	.	.	.	.	16cc\JJ	.	.	.
=36	=36	=36	=36	=36	=36	=36	=36	=36	=36	=36	=36	=36	=36	=36
8GG/L	.	16b/LL	16dd\LL	8GG/	-na	16B\LL	-ſan-	-ſan-	4g\	-na	16b\LL	ex-	1r	1r
*	*	*	*	*	*	*	*	*	*	*Xij	*	*	*	*
.	.	16a/	16cc\	.	.	16F\	.	.	.	.	16a\	.	.	.
8AA/J	.	16g/	16b\	8AA/	in	16G\	.	.	.	.	16b\	.	.	.
.	.	16f/JJ	16a\JJ	.	.	16A\JJ	.	.	.	.	16cc\JJ	.	.	.
!LO:LB:g=original	!	!	!	!	!	!	!	!	!	!	!	!	!	!
8BB/L	6	16g/LL	16g\LL	8BB/	ex-	16B\LL	-na	-na	8g\	in	16dd\LL	.	.	.
*	*	*	*	*	*	*	*Xij	*	*	*	*	*	*	*
.	.	16b/	16dd\	.	.	16A\	.	.	.	.	16cc\	.	.	.
8GG/J	.	16b/	16b\	8GG/	-cel-	16B\	.	.	8g\	ex-	16dd\	.	.	.
.	.	16b/JJ	16dd\JJ	.	.	16G\,<JJ	.	.	.	.	16b\JJ	.	.	.
8C/L	6 5	16cc/LL	16ee\LL	8C/	.	8c\	in	.	4.g\	-cel-	16ee\LL	-cel-	.	.
.	.	16b/	16dd\	.	.	.	.	.	.	.	16dd\	.	.	.
8AA/	.	16a/	16cc\	8AA/	.	8c\	ex-	.	.	.	16cc\	.	.	.
.	.	16g/JJ	16b\JJ	.	.	.	.	.	.	.	16b\JJ	.	.	.
!	!	!	!LO:LB:g=original	!	!	!	!	!	!	!	!	!	!	!
!	!	!	!LO:TX:a:t=P:problem=mixed beam	!	!	!	!	!	!	!	!	!	!	!
8D/	#4r	8.a/L	16a/LL	4D/	.	4d\	-cel-	.	.	.	4a\	.	.	.
.	.	.	16ff#X\	.	.	.	.	.	.	.	.	.	.	.
8DD/J	.	.	16ee\	.	.	.	.	.	8f#X\	.	.	.	.	.
.	.	16a/Jk	16ff#\JJ	.	.	.	.	.	.	.	.	.	.	.
!	!	!	!	!LO:LB:g=original	!	!	!	!	!	!	!	!	!	!
!	!	!	!	!	!	!	!	!	!	!	!	!	!LO:PB:g=original	!
*	*	*	*	*	*	*	*v	*v	*	*	*	*	*	*
=37	=37	=37	=37	=37	=37	=37	=37	=37	=37	=37	=37	=37	=37
!	!	!	!LO:TX:a:t=P:problem=mixed beam	!	!	!	!	!	!	!	!	!	!
4GG/	.	8b/L	8gg\L	4GG/	-ſis	4d\	-ſis	4g\	-ſis	4b\	-ſis	4rg	4r
*	*	*	*	*	*	*	*	*	*	*	*Xij	*	*
.	.	8b/J	8g/J	.	.	.	.	.	.	.	.	.	.
!	!	!LO:LB:g=original	!	!	!	!LO:LB:g=original	!	!	!	!	!	!	!
8rBB	.	8rcc	8rcc	8rBB	.	8r	.	8re	.	8rb	.	8r	8rg
8C/	.	16ee\LL	16gg\LL	8C/	O-	16e\LL	O-	8g\	O-	16gg\LL	O-	8c/	8c/
.	.	16dd\JJ	16ff\JJ	.	.	16d\JJ	.	.	.	16ff\JJ	.	.	.
!	!	!	!	!	!	!	!	!LO:LB:g=original	!	!	!	!	!
8E\L	6	8cc\L	8ee\L	8E\	-ſan-	8c\	-ſan-	8g\	-ſan-	8ee\	-ſan-	8e/L	8e/L
8C\	.	8cc\	8ee\	8C,</	-na	8c,<\	-na	8e\	-na	8ee\	-na	8c/	8c/
8E\	.	8cc\	8ee\	8E\	in	8c\	in	8g\	in	8ee\	in	8e/	8e/
8G\J	.	8b\J	8dd\J	8G\	ex-	8B\	ex-	8b\	ex-	8dd\	ex-	8g/J	8g/J
=38	=38	=38	=38	=38	=38	=38	=38	=38	=38	=38	=38	=38	=38
*	*	*	*	*	*	*	*^	*	*	*	*	*	*
4c\	.	16cc\LL	16ee\LL	4c\	-cel-	4c\	-cel-	.	16g\LL	-cel-	4ee\	-cel-	8e/L	8cc\L
.	.	16dd\	16ff\	.	.	.	.	.	16f\	.	.	.	.	.
.	.	16cc\	16ee\	.	.	.	.	.	16e\	.	.	.	16g/L	16g\L
.	.	16dd\JJ	16ff\JJ	.	.	.	.	.	16d\JJ	.	.	.	16g/JJ	16g\JJ
8C/L	.	8ee\L	8gg\L	8C,</	-ſis	8c,<\	-ſis	.	8c,</	-ſis	8ee\	-ſis	8e/L	8e/L
*	*	*	*	*	*	*	*	*	*	*ij	*	*	*	*
!	!	!	!	!	!	!	!	!	!	!	!LO:LB:g=original	!	!	!
*	*	*	*	*	*ij	*	*	*	*	*	*	*	*	*
8C/J	.	16ee\L	16gg\L	8C/	O-	16e\LL	O-	.	8g\	O-	16gg\LL	O-	8c/J	8c/J
.	.	16dd\JJ	16ff\JJ	.	.	16d\JJ	.	.	.	.	16ff\JJ	.	.	.
!	!	!	!	!	!	!	!	!	!	!	!	!	!	!LO:LB:g=original
*	*	*	*	*	*	*	*ij	*	*	*	*	*	*	*
!	!	!	!	!	!	!LO:TX:a:t=P:problem=na oznaczeniach repetycji tekstu słowa zapisane inną ręką	!	!	!	!	!	!	!	!
8E\L	6	8cc\L	8ee\L	8E\	-ſan-	8c\	-ſan-	ſan-	8g\	-ſan-	8ee\	-ſan-	8e/L	8e/L
8C\	.	8cc\	8ee\	8C/	-na	8c\	-na	-na	8e\	-na	8ee\	-na	8c/	8c/
8E\	.	8cc\	8ee\	8E\	in	8c\	in	in	8g\	in	8ee\	in	8e/	8e/
8G\J	.	8b\J	8dd\J	8G\	ex-	8B\	ex-	ex-	8b\	ex-	8dd\	ex-	8g/J	8g/J
=39	=39	=39	=39	=39	=39	=39	=39	=39	=39	=39	=39	=39	=39	=39
4c\	.	16cc\LL	16ee\LL	4c\	-cel-	16c\LL	-cel-	-cel-	4g\	-cel-	4ee\	-cel-	8e/L	8cc\L
.	.	16dd\	16ff\	.	.	16d\	.	.	.	.	.	.	.	.
.	.	16cc\	16ee\	.	.	16c\	.	.	.	.	.	.	16g/L	16g\L
.	.	16dd\JJ	16ff\JJ	.	.	16d\JJ	.	.	.	.	.	.	16g/JJ	16g\JJ
!	!	!	!	!	!	!	!	!	!	!	!	!	!LO:TX:a:t=P:problem=mixed beam	!LO:TX:a:t=P:problem=mixed beam
8C/L	.	8ee\L	8gg\L	8C/	-ſis	8e,<\	-ſis	-ſis	8g\	-ſis	8ee,<\	-ſis	8e/L	8e/L
8C/J	.	8ee\J	8gg\J	8C/	O-	8e\	O-	o-	8c/	O-	8gg\	O-	8ee\J	8gg\J
*	*	*	*	*	*	*	*	*	*	*	*	*ij	*	*
!	!	!	!	!	!	!	!	!	!	!	!	!	!	!LO:N:vis=8.
8D/L	.	8dd\L	8ff\L	8D/	-ſan-	8d\	-ſan-	-ſan-	8f\	-ſan-	8ff\	-ſan-	8dd\L	8ff\L
8D/	.	8dd\	8ff\	8D/	-na	8d\	-na	-na	8f\	-na	8ff\	-na	8dd\	8ff\
8BB/	.	8dd\	8ff\	8BB/	in	8d\	in	in	8f\	in	8b\	in	8dd\	8ff\
8GG/J	7	8dd\J	8ff\J	8GG/	ex-	8d\	ex-	ex-	8f\	ex-	8ff\	ex-	8dd\J	8ff\J
=40	=40	=40	=40	=40	=40	=40	=40	=40	=40	=40	=40	=40	=40	=40
8C\L	.	16cc\LL	16ee\LL	8C/	-cel-	16c\LL	-cel-	-cel-	8g\	-cel-	16ee\LL	-cel-	16cc\LL	16ee\LL
.	.	16dd\	16ff\	.	.	16d\	.	.	.	.	16ff\	.	16dd\	16ff\
8C\	.	16cc\	16ee\	8C,</	-ſis	16c\	.	.	8g,<\	-ſis	16ee\	.	16cc\	16ee\
*	*	*	*	*	*Xij	*	*	*	*	*Xij	*	*	*	*
.	.	16dd\JJ	16ff\JJ	.	.	16d\JJ	.	.	.	.	16ff\JJ	.	16dd\JJ	16ff\JJ
!	!	!	!	!	!	!LO:LB:g=original	!	!	!	!	!	!	!	!
8E\	6	8ee\L	8gg\L	8E\	in	8e\L	-ſis	-ſis	8g\	in	8gg\L	.	8ee\L	8gg\L
8F\J	6 5	16dd\L	16ff\L	8F\	ex-	16d\L	O-	O-	8a\	ex-	16ff\L	.	16dd\L	16ff\L
.	.	16cc\JJ	16ee\JJ	.	.	16c\JJ	.	.	.	.	16ee\JJ	.	16cc\JJ	16ee\JJ
!	!	!	!	!LO:LB:g=original	!	!	!	!	!LO:LB:g=original	!	!	!	!	!
8G\L	.	16b/LL	16dd\LL	8G\	-cel-	8B\	-ſan-	-ſan-	8b\	-cel-	8dd\	.	8g/L	8dd\L
.	.	16a/	16cc\	.	.	.	.	.	.	.	.	.	.	.
8G\J	.	16g/	16b\	8G\	-ſis	8B\	-na	-na	8g\	-ſis	8dd\	-ſis	8g/J	8dd\J
*	*	*	*	*	*	*	*	*	*	*	*	*Xij	*	*
.	.	16a/JJ	16cc\JJ	.	.	.	.	.	.	.	.	.	.	.
8rE	.	16b/LL	16dd\LL	8rB	.	8rc	.	.	8rd	.	8rcc	.	8rg	8rg
.	.	16b/	16dd\	.	.	.	.	.	.	.	.	.	.	.
*	*	*	*	*	*	*	*	*	*	*ij	*	*	*	*
!	!	!	!	!	!	!	!	!	!LO:N:vis=8.	!	!	!	!	!
8B\	6	16a/	16cc\	8B\	O-	8d\	O-	O-	8g\	O-	8dd\	O-	8g/	8g/
.	.	16b/JJ	16dd\JJ	.	.	.	.	.	.	.	.	.	.	.
=41	=41	=41	=41	=41	=41	=41	=41	=41	=41	=41	=41	=41	=41	=41
8c\L	.	16cc\LL	16ee\LL	8c\L	-ſan-	8c\L	-ſan-	-ſan-	8e\L	-ſan-	8ee\L	-ſan-	8g/L	8g/L
.	.	16ee\	16gg\	.	.	.	.	.	.	.	.	.	.	.
8B\	.	16b\	16dd\	8B\J	.	8d\J	.	.	8g\J	.	8dd\J	.	16g/L	16g/L
.	.	16dd\JJ	16gg\JJ	.	.	.	.	.	.	.	.	.	16g/JJ	16g/JJ
!	!	!	!	!	!	!	!	!	!	!	!LO:LB:g=original	!	!	!
8c\	.	16ee\LL	16cc\LL	8c,<\	-na	8c\	-na	-na	8g\	-na	8ee,<\	-na	16g/LL	16g/LL
.	.	16gg\	16ee\	.	.	.	.	.	.	.	.	.	16g/	16g/
*	*	*	*	*	*ij	*	*	*	*	*	*	*ij	*	*
8G\J	.	16dd\	16b\	8G\	O-	8d\	O-	o-	8g\	O-	8b\	O-	16g/	16g/
.	.	16b\JJ	16gg\JJ	.	.	.	.	.	.	.	.	.	16g/JJ	16g/JJ
8c\L	.	16cc\LL	16ee\LL	8c\L	-ſan-	8e\L	-ſan-	-ſan-	8e\L	-ſan-	8cc\L	-ſan-	4g/	4g/
.	.	16ee\	16gg\	.	.	.	.	.	.	.	.	.	.	.
8B\	.	16b\	16dd\	8B\J	.	8d\J	.	.	8g\J	.	8dd\J	.	.	.
.	.	16dd\JJ	16gg\JJ	.	.	.	.	.	.	.	.	.	.	.
!	!	!LO:LB:g=original	!LO:LB:g=original	!	!	!	!	!	!	!	!	!	!	!
8c\	.	16ff\LL	16cc\LL	8c\L	-na	8c\	-na	-na	8g\	-na	8ee,<\	-na	4r	4r
*	*	*	*	*	*Xij	*	*	*	*	*	*	*Xij	*	*
.	.	16gg\	16ee\	.	.	.	.	.	.	.	.	.	.	.
8E\J	.	16ee\	16b\	8E\J	.	8c\	O-	O-	8g\	in	8cc\	in	.	.
.	.	16ee\JJ	16gg\JJ	.	.	.	.	.	.	.	.	.	.	.
!	!	!	!	!	!	!	!	!	!	!	!	!	!LO:LB:g=original	!
=42	=42	=42	=42	=42	=42	=42	=42	=42	=42	=42	=42	=42	=42	=42
!LO:TX:a:t=P:problem=mixed beam	!	!	!	!	!	!	!	!	!	!	!	!	!	!
8F\L	6 5	16cc\LL	16aa\LL	8F\	in	8c\	-ſan-	-ſan-	4a\	ex-	8dd\	ex-	2r	2r
.	.	16ee\	16gg\	.	.	.	.	.	.	.	.	.	.	.
8D\	.	16dd\	16ff\	8D/	ex-	8c\	-na	-na	.	.	8dd\	-cel-	.	.
.	.	16cc\JJ	16ee\JJ	.	.	.	.	.	.	.	.	.	.	.
!	!	!	!	!LO:TX:a:t=P:problem=mixed beam	!	!	!	!	!	!	!	!	!	!
8G\	.	8dd\L	16dd\LL	8G\L	-cel-	8c\L	O-	o-	4g\	-cel-	4dd\	-ſis	.	.
.	.	.	16bb\	.	.	.	.	.	.	.	.	.	.	.
8GG/J	7 4:3	8dd\J	16aa\	8GG/J	.	8B\J	-ſan-	-ſan-	.	.	.	.	.	.
.	.	.	16bb\JJ	.	.	.	.	.	.	.	.	.	.	.
!	!	!	!LO:TX:a:t=P:problem=mixed beam	!	!	!	!	!	!	!	!	!	!	!
4C/	.	8ee\L	8ccc\L	4C/	-ſis	4c\	-na	-na	4g\	-ſis	4ee\	.	8e/L	8g/L
*	*	*	*	*	*	*	*Xij	*	*	*Xij	*	*	*	*
.	.	8ee\J	8cc/J	.	.	.	.	.	.	.	.	.	16e/L	16g/L
.	.	.	.	.	.	.	.	.	.	.	.	.	16e/JJ	16g/JJ
!LO:LB:g=original	!	!	!	!	!	!	!	!	!	!	!	!	!	!
8rBB	.	8rcc	8ree	8rBB	.	8rc	.	.	8re	.	8rcc	.	8e/L	8e/L
8C/	.	16ee\LL	16gg\LL	8C/	O-	16e\LL	O-	.	8g\	O-	16gg\LL	O-	8c/J	8c/J
.	.	16dd\JJ	16ff\JJ	.	.	16d\JJ	.	.	.	.	16ff\JJ	.	.	.
*	*	*	*	*	*	*	*v	*v	*	*	*	*	*	*
=43	=43	=43	=43	=43	=43	=43	=43	=43	=43	=43	=43	=43	=43
8E\L	6	8cc\L	8ee\L	8E\	-ſan-	8c\	-ſan-	8g\	-ſan-	8ee\	-ſan-	8e/L	8e/L
8C\	.	8cc\	8ee\	8C,</	-na	8c\	-na	8e\	-na	8ee,<\	-na	8c/	8c/
8E\	.	8cc\	8cc\	8E\	in	8c\	in	8g\	in	8ee\	in	8e/	8e/
8G\J	.	8b\J	8dd\J	8G\	ex-	8B\	ex-	8b\	ex-	8dd\	ex-	8g/J	8g/J
!	!	!	!	!	!	!LO:LB:g=original	!	!	!	!	!	!	!
4c\	.	16cc\LL	16ee\LL	4c\	-cel-	4c\	-cel-	16g\LL	-cel-	4ee\	-cel-	8e/L	8cc\L
.	.	16dd\	16ff\	.	.	.	.	16f\	.	.	.	.	.
.	.	16cc\	16ee\	.	.	.	.	16e\	.	.	.	16e/L	16g\L
.	.	16dd\JJ	16ff\JJ	.	.	.	.	16d\JJ	.	.	.	16e/JJ	16g\JJ
8C/L	.	8ee\L	8gg\L	8C,</	-ſis	8c\	-ſis	8c,</	-ſis	8ee,<\	-ſis	8e/L	8e/L
*	*	*	*	*	*ij	*	*	*	*	*	*	*	*
8C/J	.	16ee\L	16gg\L	8C/	O-	16e\LL	O-	8g\	O-	16gg\LL	O-	8c/J	8c/J
.	.	16dd\JJ	16ff\JJ	.	.	16d\JJ	.	.	.	16ff\JJ	.	.	.
!	!	!	!	!	!	!	!	!LO:LB:g=original	!	!	!	!	!LO:LB:g=original
=44	=44	=44	=44	=44	=44	=44	=44	=44	=44	=44	=44	=44	=44
*	*	*	*	*	*	*	*^	*	*	*	*	*	*
8E\L	6	8cc\L	8ee\L	8E\	-ſan-	8c\	-ſan-	.	8g\	-ſan-	8ee\	-ſan-	8e/L	8e/L
8C\	.	8cc\	8ee\	8C/	-na	8c\	-na	.	8g,<\	-na	8ee\	-na	8c/	8c/
8E\	.	8cc\	8cc\	8E\	in	8c\	in	.	8g\	in	8ee\	in	8e/	8e/
!	!	!	!	!LO:LB:g=original	!	!	!	!	!	!	!	!	!	!
!	!	!	!	!	!	!	!	!	!	!	!LO:PB:g=original	!	!	!
*	*	*	*	*	*	*	*	*	*	*	*	*ij	*	*
8G\J	.	8b\J	8dd\J	8G\	ex-	8B\	ex-	.	8g\	ex-	8dd\	ex-	8g/J	8g/J
!	!	!	!	!	!	!	!	!	!	!	!	!	!	!LO:TX:a:t=P:problem=mixed beam
4c\	.	16cc\LL	16ee\LL	4c\	-cel-	4c\	-cel-	.	16g\LL	-cel-	4ee\	-cel-	8e/L	8cc\L
.	.	16dd\	16ff\	.	.	.	.	.	16f\	.	.	.	.	.
.	.	16cc\	16ee\	.	.	.	.	.	16e\	.	.	.	16e/L	16g/L
.	.	16dd\JJ	16ff\JJ	.	.	.	.	.	16d\JJ	.	.	.	16e/JJ	16g/JJ
!	!	!	!	!	!	!	!	!	!	!	!	!	!LO:TX:a:t=P:problem=mixed beam	!LO:TX:a:t=P:problem=mixed beam
8C/L	.	8ee\L	8gg\L	8C/	-ſis	8c,<\	-ſis	.	8c,</	-ſis	8ee\	-ſis	8c/L	8e/L
*	*	*	*	*	*	*	*ij	*	*	*ij	*	*Xij	*	*
!	!	!	!	!	!	!LO:TX:a:t=P:problem=na oznaczeniach repetycji tekstu słowa zapisane inną ręką	!	!	!	!	!	!	!	!
8C/J	.	8ee\J	8gg\J	8C/	O-	8e\	O-	O-	8c/	O-	8gg\	O-	8ee\J	8gg\J
=45	=45	=45	=45	=45	=45	=45	=45	=45	=45	=45	=45	=45	=45	=45
8D/L	.	8dd\L	8ff\L	8D/	-ſan-	8c\	-ſan-	-ſan-	8f\	-ſan-	8ff\	-ſan-	8dd\L	8ff\L
8D/	.	8dd\	8ff\	8D/	-na	8c\	-na	-na	8f\	-na	8ff\	-na	8dd\	8ff\
*	*	*	*	*	*	*	*	*	*	*	*	*ij	*	*
8BB/	.	8dd\	8ff\	8BB/	in	8B\	in	In	8f\	in	8b\	in	8dd\	8ff\
8GG/J	7	8dd\J	8ff\J	8GG/	ex-	8B\	ex-	ex-	8f\	ex-	8ff\	ex-	8dd\J	8ff\J
8C/L	.	16cc\LL	16ee\LL	8C/	-cel-	16c\LL	-cel-	-cel-	8g\	-cel-	16ee\LL	-cel-	16cc\LL	16ee\LL
.	.	16dd\	16ff\	.	.	16d\	.	.	.	.	16ff\	.	16dd\	16ff\
8C/	.	16cc\	16ee\	8C/	.	16c\	.	.	8g\	.	16ee\	.	16cc\	16ee\
.	.	16dd\JJ	16ff\JJ	.	.	16d\JJ	.	.	.	.	16ff\JJ	.	16dd\JJ	16ff\JJ
8E/	6	16ee\LL	16gg\LL	8E\	-ſis	8e\	-ſis	-ſis	8g\	-ſis	8gg\	-ſis	8ee\L	8gg\L
.	.	16ee\	16gg\	.	.	.	.	.	.	.	.	.	.	.
8F/J	6 5	16dd\	16ff\	8F\	O-	16d\LL	O-	O-	8a\	O-	16ff\LL	O-	16dd\L	16ff\L
.	.	16cc\JJ	16ee\JJ	.	.	16c\JJ	.	.	.	.	16ee\JJ	.	16cc\JJ	16ee\JJ
=46	=46	=46	=46	=46	=46	=46	=46	=46	=46	=46	=46	=46	=46	=46
4.G\	.	16b\LL	16dd\LL	8G\	-ſan-	4B\	-ſan-	-ſan-	8b\	-ſan-	4dd\	-ſan-	8g/L	8dd\L
.	.	16dd\	16b\	.	.	.	.	.	.	.	.	.	.	.
.	.	16dd\	16b\	8G,<\	-na	.	.	.	8g\	-na	.	.	8g/J	8dd\
*	*	*	*	*	*Xij	*	*	*	*	*Xij	*	*	*	*
.	.	16dd\JJ	16b\JJ	.	.	.	.	.	.	.	.	.	.	.
.	.	16dd\LL	16g\LL	8rG	.	8B\	-na	-na	8rg	.	8dd,<\	-na	8rg	8rdd
*	*	*	*	*	*	*	*	*	*	*	*	*Xij	*	*
.	.	16b\	16dd\	.	.	.	.	.	.	.	.	.	.	.
!	!	!	!	!	!	!	!	!	!	!	!	!	!LO:TX:a:t=P:problem=mixed beam	!
16G\LL	.	16a\	16cc\	16G\LL	O-	8B\	O-	o-	16g\LL	O-	8dd\	O-	8g/L	8dd\J
16F\JJ	.	16b\JJ	16dd\JJ	16F\JJ	.	.	.	.	16f\JJ	.	.	.	.	.
!	!	!LO:LB:g=original	!LO:LB:g=original	!	!	!LO:LB:g=original	!	!	!	!	!	!	!	!
8E\L	.	8cc\L	8ee\L	8E\	-ſan-	8c\	-ſan-	-ſan-	8g\	-ſan-	8ee\	-ſan-	8cc\	8ee\L
8D\	.	8dd\J	8ff\J	8D/	-na	8d\	-na	-na	8f\	-na	8ff\	-na	8dd\J	8ff\J
!	!	!	!	!	!	!	!	!	!	!	!LO:LB:g=original	!	!	!
8C\	.	16ee\LL	16gg\LL	8C/	in	16e\LL	in	In	8e\	in	16gg\LL	in	16ee\LL	16gg\LL
.	.	16dd\	16ff\	.	.	16d\JJ	.	.	.	.	16ff\JJ	.	16dd\	16ff\
8E\J	.	16ee\	16gg\	8E\	ex-	16e\LL	ex-	ex-	8g\	ex-	16gg\LL	ex-	16ee\	16gg\
.	.	16cc\JJ	16ee\JJ	.	.	16c\JJ	.	.	.	.	16ee\JJ	.	16dd\JJ	16ee\JJ
=47	=47	=47	=47	=47	=47	=47	=47	=47	=47	=47	=47	=47	=47	=47
!LO:TX:a:t=P:problem=mixed beam	!	!	!	!	!	!	!	!	!	!	!	!	!	!
8F\L	6 5	16ff\LL	16aa\LL	8F\L	-cel-	(4.c\	-cel-	-cel-	4a\	-cel-	4.dd\	-cel-	16ff\LL	16aa\LL
.	.	16ee\	16gg\	.	.	.	.	.	.	.	.	.	16ee\	16gg\
8D\	.	16dd\	16ff\	8D\J	.	.	.	.	.	.	.	.	16dd\	16ff\
.	.	16cc\JJ	16ee\JJ	.	.	.	.	.	.	.	.	.	16cc\JJ	16ee\JJ
!	!	!	!	!	!	!	!	!	!	!	!	!	!LO:LB:g=original	!
!	!	!	!	!LO:TX:a:t=P:problem=mixed beam	!	!	!	!	!	!	!	!	!	!
8G\	.	8.cc\L	8.dd\L	8G\L	.	.	.	.	4g\	.	.	.	16g/LL	8.dd\L
.	.	.	.	.	.	.	.	.	.	.	.	.	16e/	.
8GG/J	7 4:3	.	.	8GG/J	.	8B\)	.	.	.	.	16cc\LL	.	16c/	.
.	.	16b\Jk	16dd\Jk	.	.	.	.	.	.	.	16dd\JJ	.	16g/JJ	16dd\Jk
!	!	!LO:TX:a:t=P:problem=mixed beam	!LO:TX:a:t=P:problem=mixed beam	!	!	!	!	!	!	!	!	!	!	!
4C/	.	8cc\L	8cc\L	4C/	-ſis	4c\	-ſis	-ſis	4g\	-ſis	4ee\	-ſis	4e/	4cc\
.	.	8c/J	8c/J	.	.	.	.	.	.	.	.	.	.	.
!LO:TX:a:t=P:problem=kreska taktowa koniec/początek repetycji	!	!LO:TX:a:t=P:problem=kreska taktowa koniec/początek repetycji	!LO:TX:a:t=P:problem=kreska taktowa początek/koniec repetycji	!LO:TX:a:t=P:problem=kreska taktowa początek/koniec repetycji	!	!LO:TX:a:t=P:problem=kreska taktowa koniec/początek repetycji	!	!	!	!	!LO:TX:a:t=P:problem=kreska taktowa początek/koniec repetycji	!	!	!LO:TX:a:t=P:problem=kreska taktowa koniec/początek repetycji
4r	.	4r	4r	4r	.	4r	.	.	4re	.	4rb	.	4rg	4r
*	*	*	*	*	*	*	*v	*v	*	*	*	*	*	*
==	==	==	==	==	==	==	==	==	==	==	==	==	==
*-	*-	*-	*-	*-	*-	*-	*-	*-	*-	*-	*-	*-	*-
!!!system-decoration: [(s1,s2)][(s3,s4,s5,s6)][(s7,s8)]s9
!!!RDF**kern: < = below
!!!ENC: Zofia Niedbalska
!!!END: 2020-11-09
!!!ENC: Andrzej Kubiczek
!!!END: 2020-05-05
